!!!OTL: Das Schwabentoechterlein Ein Maedchen taet wohl immer sag'n:
!!!ARE: Europa, Mitteleuropa, Deutschland / UdSSR, Ostpreussen, Kr. Pr. - Eylau,
!!    Paroesken
!!!YOR: 4, S. 41
!!    1933 aufgezeichnet
!!!SCT: Q0073A
!!!YEM: Copyright 1995, estate of Helmut Schaffrath.
**kern
*ICvox
*Ivox
*M3/4
*k[]
*C:
{4c
=1
8e
8d
4c
4g
=2
8g
8f#
4g}
{4g
=3
8cc
8b
4cc
4dd
=4
8cc
8b
4a}
{4g
=5
8cc
8b
4cc
4e
=6
8f
8a
4g}
{4f
=7
8e
8c
4g
4e
=8
4d
4c}
==
!!!AGN: Ballade, Weglaufen, Schwangerschaft, Rueckkehr
!!!ONB: ESAC (Essen Associative Code) Database: BALLADE
!!!AMT: simple triple
!!!AIN: vox
!!!EED: Helmut Schaffrath
!!!EEV: 1.0
*-
